!!!COM: Gomółka, Mikołaj
!!!CDT: ~1535-after 1591
!!!OTL: Szczęśliwy, komu grzéchy odpuszczono
!!!OTL@LAT: Beati quorum remissae
!!!AGn: Motet; Psalm
!!!SCn: Gom2032
!!!voices: 4
!!!CNT: Polish
!!!OCY: Poland
!!!LYR: Jan Kochanowski (1530-1584/08/22)
!!!GTL: Melodiae na Psałterz Polski
!!!EFL: 32/150
!!!PPR: Łazarz Andrysowicz
!!!PPP: Kraków
!!!PDT: 1580
!!!YEC: 2015 Marcin Konik
!!!ENC: Marcin Konik
!!!END: 2015/05/19
!!!EED: Marcin Konik
!!!EEV: 2015/05/19
!!!ONB: Translated from MusicXM and edited on 2015/03/06 by Marcin Konik
!!!CharacterEncoding: utf-8
!!muse2ps: i2I150v85,85,85,150Q16
**kern	**kern	**kern	**kern
*staff4	*staff3	*staff2	*staff1
*Ivox	*Ivox	*Ivox	*Ivox
*I"Bassus	*I"Tenor	*I"Altus	*I"Cantus
*I'B	*I'T	*I'A	*I'C
*clefF3	*clefC3	*clefC3	*clefC1
*k[]	*k[]	*k[]	*k[]
*M2/1	*M2/1	*M2/1	*M2/1
*met(C|)	*met(C|)	*met(C|)	*met(C|)
=1-	=1-	=1-	=1-
1D	1d	1f	1a
2A	2c#	2e	2a
2D	2d	2f#	2a
=2	=2	=2	=2
1G	1d	1g	1b
2C	2e	2g	2cc
2c	2e	2g	2cc
=3	=3	=3	=3
2G	4d	2g	2b
.	4c	.	.
2A	4B	2e	2a
.	4A	.	.
2E	2B	2.e	2a
2E	2B	.	2g#
.	.	4d	.
=4	=4	=4	=4
1AA	1A	1c#	1a
=:|:	=:|:	=:|:	=:|:
1D	1A	1d	1f#
=5	=5	=5	=5
2G	2B	2d	2g
2F#	2A	1d	2a
1G	2.B	.	1g
.	.	2G	.
.	4c	.	.
=6	=6	=6	=6
2D	2d	2A	2f#
2D	2e#	2d	2a
2E	2e	2B	2g#
2F	2d	2A	2a
=7	=7	=7	=7
2G	2d	2B	2g
2A	2c#	2A	2e
2D	2d	2A	2f#
2D	2d	4f	2a
.	.	4g	.
=8	=8	=8	=8
2A	2e	2a	2cc
2A	2e#	2a	2cc
1G	1g	1d	1b
=9	=9	=9	=9
1D	1e#	1d	1a
2C	2.e	2.g	2.cc
2D	.	.	.
.	4d	4f	4b
=10	=10	=10	=10
2F	2c	2f	2a
2D	2d	2f	2a
1E	1B	2.e	4g#
.	.	.	2a
.	.	4d	4g#
=11	=11	=11	=11
0AA	0A	0c#	0a
==	==	==	==
*-	*-	*-	*-
